logo/flat-ui.svg

<?xml version="1.0" encoding="UTF-8" standalone="no"?>
<svg width="256px" height="194px" viewBox="0 0 256 194" version="1.1" xmlns="http://www.w3.org/2000/svg" xmlns:xlink="http://www.w3.org/1999/xlink" preserveAspectRatio="xMidYMid">
    <defs>
		<clipPath id="clip-1">
			<path d="M68.3667503,0 C64.7407503,0 61.2637503,1.443 58.7027503,4.011 L2.08675027,60.783 C-0.696249731,63.576 -0.696249731,68.095 2.09075027,70.885 L122.75875,191.721 C125.54875,194.515 130.07575,194.518 132.87075,191.728 L253.90275,70.864 C256.68675,68.083 256.70075,63.575 253.93375,60.777 L197.83475,4.052 C195.27175,1.459 191.77775,0 188.13175,0 L68.3667503,0 Z"></path>
		</clipPath>
    </defs>
	<g clip-path="url(#clip-1)">
		<g transform="translate(-2.95, -0.86)">
			<path d="M68.3506,0.8562 L194.0676,0.8562 C195.8036,0.8562 197.4666,1.5512 198.6876,2.7852 L261.8886,66.6922 L130.7626,197.6362 L-0.0004,66.6922 L63.7496,2.7652 C64.9686,1.5432 66.6246,0.8562 68.3506,0.8562" fill="#57BBFB"></path>
			<path d="M197.5985,1.9047 C196.5545,1.2277 195.3315,0.8557 194.0675,0.8557 L68.3505,0.8557 C66.6245,0.8557 64.9685,1.5427 63.7495,2.7657 L65.8355,5.4027 L97.7535,36.7747 L164.0445,36.5017 L197.5985,1.9047 Z" fill="#48ACEC"></path>
			<path d="M131.3549,197.0446 L130.7629,197.6366 L-0.0001,66.6916 L1.1039,65.5856 L70.2009,65.5856 L131.3549,193.3626 L131.3549,197.0446 Z" fill="#2B8FCF"></path>
			<path d="M87.4283,109.9353 L98.3013,131.9853 L163.8683,131.9853 L174.6443,110.4373 L130.4383,66.5023 L87.4283,109.9353 Z" fill="#2D91D1"></path>
			<path d="M196.798,66.5022 L261.729,66.5022 L196.325,0.9012 L163.499,33.5852 L196.798,66.5012 L196.798,66.5022 Z" fill="#7ACBFF"></path>
			<path d="M163.4987,33.5856 L130.8537,1.3166 L98.1117,34.1426 L130.4387,66.5026 L163.4987,33.5856 Z" fill="#55B9F9"></path>
			<path d="M130.4382,66.5022 L65.8362,66.5022 L87.4282,109.9412 L130.4382,66.5072 L174.6452,110.4432 L196.7982,66.5022 L130.4382,66.5022 Z" fill="#3B9FDF"></path>
			<path d="M65.8359,66.5016 L65.8359,66.5026 L130.4379,66.5026 L98.1119,34.1426 L65.8359,66.5016 Z" fill="#52B6F7"></path>
			<path d="M163.4987,33.5856 L130.4387,66.5026 L196.7977,66.5026 L196.7987,66.5016 L163.4987,33.5856 Z" fill="#8FD3FF"></path>
			<path d="M163.4987,33.5856 L130.8537,1.3166 L163.4987,33.5856 Z" fill="#FF2690"></path>
			<path d="M98.1116,34.1426 L65.5856,1.5836 L0.0456,66.5026 L65.8366,66.5026 L65.8356,66.5016 L98.1116,34.1426 Z" fill="#41A5E5"></path>
			<path d="M130.8533,198 L163.8683,131.985 L98.3013,131.985 L130.8533,198 Z" fill="#3CA0E0"></path>
			<path d="M174.6448,110.4378 L163.8688,131.9858 L196.3258,131.9858 L174.6448,110.4378 Z" fill="#4EB2F2"></path>
			<path d="M65.5931,131.9854 L98.3011,131.9854 L87.4281,109.9354 L65.5931,131.9854 Z" fill="#1A7EBE"></path>
			<path d="M180.4086,65.9839 C185.7446,64.8529 195.4896,55.0279 196.3406,50.2159 C196.3846,49.9679 196.7856,49.9709 196.8576,50.2109 C198.3216,55.1259 208.2916,65.0579 212.7016,65.9839 C212.9596,66.0379 212.9896,66.8859 212.7326,66.9439 C208.1756,67.9759 198.2436,78.0059 196.8716,82.7939 C196.7966,83.0549 196.3776,83.0569 196.3146,82.7929 C195.2256,78.2379 185.5076,68.2959 180.3776,66.9439 C180.1206,66.8759 180.1486,66.0389 180.4086,65.9839" fill="#FFFFFF"></path>
		</g>
	</g>
</svg>

<svg viewBox="0 0 256 194" xmlns="http://www.w3.org/2000/svg"><defs><clipPath id="a"><path d="M68.36 0c-3.63 0-7.11 1.44-9.67 4.011L2.07 60.783c-2.79 2.79-2.79 7.31 0 10.1l120.66 120.83c2.79 2.79 7.31 2.79 10.11 0L253.87 70.84c2.78-2.79 2.79-7.29.03-10.09L197.8 4.03c-2.57-2.593-6.06-4.052-9.71-4.052H68.32Z"/></clipPath></defs><g clip-path="url(#a)"><g transform="translate(-2.95-.86)"><path fill="#57BBFB" d="M68.35.85h125.71c1.73 0 3.39.69 4.62 1.92l63.2 63.907 -131.126 130.94L-.01 66.667 63.74 2.73C64.95 1.5 66.61.82 68.34.82"/><path fill="#48ACEC" d="M197.59 1.9c-1.05-.677-2.27-1.05-3.54-1.05H68.33c-1.73 0-3.39.68-4.61 1.91l2.08 2.63 31.91 31.37 66.29-.28L197.55 1.88Z"/><path fill="#2B8FCF" d="M131.35 197.04l-.6.59L-.02 66.685l1.1-1.11h69.09l61.15 127.77v3.68Z"/><path fill="#2D91D1" d="M87.42 109.93l10.87 22.05h65.56l10.77-21.55 -44.21-43.94 -43.01 43.43Z"/><path fill="#7ACBFF" d="M196.79 66.5h64.93L196.31.89l-32.83 32.684 33.29 32.91v0Z"/><path fill="#55B9F9" d="M163.49 33.58L130.84 1.311 98.09 34.137l32.32 32.36 33.06-32.917Z"/><path fill="#3B9FDF" d="M130.43 66.5H65.82l21.592 43.43 43.01-43.44 44.2 43.93 22.15-43.95h-66.36Z"/><path fill="#52B6F7" d="M65.83 66.5v0h64.6L98.1 34.14 65.82 66.49Z"/><path fill="#8FD3FF" d="M163.49 33.58l-33.06 32.917h66.35l0-.01 -33.3-32.92Z"/><path fill="#FF2690" d="M163.49 33.58L130.84 1.311l32.64 32.269Z"/><path fill="#41A5E5" d="M98.11 34.14L65.58 1.58 .04 66.49H65.83l-.01-.01 32.27-32.36Z"/><path fill="#3CA0E0" d="M130.85 198l33.01-66.02H98.29l32.55 66.01Z"/><path fill="#4EB2F2" d="M174.64 110.43l-10.78 21.54h32.45l-21.69-21.55Z"/><path fill="#1A7EBE" d="M65.59 131.98h32.708l-10.88-22.05 -21.84 22.05Z"/><path fill="#FFF" d="M180.4 65.98c5.33-1.14 15.08-10.96 15.93-15.77 .04-.25.44-.25.51-.01 1.46 4.91 11.43 14.84 15.84 15.77 .25.05.28.9.03.96 -4.56 1.03-14.49 11.06-15.87 15.85 -.08.26-.5.26-.56-.01 -1.09-4.56-10.81-14.5-15.94-15.85 -.26-.07-.23-.91.03-.96"/></g></g></svg>
